!!!COM: Johann Sebastian Bach
!!!OPR: Canonic Variations on 'Vom Himmel hoch, da komm ich her'
!!!OTL: Canon all' ottava (Canon No. 1)
!!!SCT: BWV 769a
**kern	**kern	**kern
*CF	*conseq	*guida
*k[]	*k[]	*k[]
*C:	*C:	*C:
*M12/8	*M12/8	*M12/8
=1	=1	=1
1.r	4r	16r
.	.	16cc
.	.	16b
.	.	16a
.	8r	16g
.	.	16f
.	16r	16e
.	16c	16a
.	16B	16g
.	16A	16f
.	16G	16e
.	16F	16d
.	16E	8c
.	16A	.
.	16G	8e
.	16F	.
.	16E	8g
.	16D	.
.	8C	16cc
.	.	16ee
.	8E	16gg
.	.	16cc
.	8G	16b
.	.	16ff
=2	=2	=2
2.r	16c	4eem
.	16e	.
.	16g	.
.	16c	.
.	16B	8dd
.	16f	.
.	4me	16r
.	.	16cc
.	.	16b
.	.	16a
.	8d	16g
.	.	16f
2.c	16r	8e
.	16c	.
.	16B	8c
.	16A	.
.	16G	8e
.	16F	.
.	8E	16g
.	.	16gg
.	8C	16ff
.	.	16ee
.	8E	16dd
.	.	16cc
=3	=3	=3
4.B	16G	16dd
.	16g	16b
.	16f#	16cc
.	16e	16ee
.	16d	[8ff#
.	16c	.
4.A	16d	16ff#]
.	16B	16gg
.	16c	16aa
.	16e	16cc
.	[8f#	16b
.	.	16a
4.B	16f#]	8dd
.	16g	.
.	16a	8ff#
.	16c	.
.	16B	8gg
.	16A	.
4.G	8d	16r
.	.	16cc
.	8f#	16b
.	.	16a
.	8g	16g
.	.	16fn
=4	=4	=4
4.A	16r	8e
.	16c	.
.	16B	16d
.	16A	16e
.	16G	[8f
.	16F	.
4.B	8E	16f]
.	.	16g
.	16D	16f
.	16E	16e
.	[8F	16d
.	.	16e
2.c	16F]	8c
.	16G	.
.	16F	16d
.	16E	16e
.	16D	16f
.	16E	16g
.	8C	16a
.	.	16g
.	16D	16f
.	16E	16g
.	16F	16a
.	16G	16b
=5	=5	=5
1.r	16A	8cc
.	16G	.
.	16F	8a
.	16G	.
.	16A	[8f
.	16B	.
.	8c	16f]
.	.	16e
.	8A	16f
.	.	16g
.	[8F	16a
.	.	16f
.	16F]	16d
.	16E	16c
.	16F	16d
.	16G	16e
.	16A	16c
.	16F	16d
.	16D	8B
.	16C	.
.	16D	8d
.	16E	.
.	16C	[8g
.	16D	.
=6	=6	=6
2.r	8BB	16g]
.	.	16a
.	8D	16g
.	.	16f
.	[8G	16e
.	.	16d
.	16G]	16e
.	16A	16f
.	16G	16e
.	16F	16d
.	16E	16c
.	16D	16B
2.c	16E	16c
.	16F	16G
.	16E	16A
.	16D	16B
.	16C	16c
.	16BB	16d
.	16C	16e
.	16GG	16d
.	16AA	16c
.	16BB	16d
.	16C	16e
.	16D	16f
=7	=7	=7
4.c	16E	16g
.	16D	16f
.	16C	16e
.	16D	16g
.	16E	16cc
.	16F	16a
4.G	16G	16b
.	16F	16g
.	16E	16cc
.	16G	16dd
.	16c	16ee
.	16A	16ff
4.G	16B	8gg
.	16G	.
.	16c	8ee
.	16d	.
.	16e	[8b
.	16f	.
4.E	8g	16b]
.	.	16a
.	8e	16g
.	.	16b
.	[8B	16e
.	.	16ee
=8	=8	=8
4.G	16B]	16ee
.	16A	16cc
.	16G	8dd
.	16B	.
.	16E	8r
.	16e	.
4.F	16e	16r
.	16c	16a
.	8d	16g#
.	.	16a
.	8r	16ee
.	.	16dd
2.E	16r	16ee
.	16A	16ff
.	16G#	16ee
.	16A	16dd
.	16e	16cc
.	16d	16b
.	16e	16cc
.	16f	16dd
.	16e	16cc
.	16d	16b
.	16c	16a
.	16B	16g#
=9	=9	=9
1.r	16c	8a
.	16d	.
.	16c	8e
.	16B	.
.	16A	8d
.	16G#	.
.	8A	16c
.	.	16B
.	8E	16c
.	.	16d
.	8D	16B
.	.	16c
.	16C	8A
.	16BB	.
.	16C	16a
.	16D	16f
.	16BB	16gn
.	16C	16e
.	8AA	16f
.	.	16g
.	16A	16f
.	16F	16d
.	16Gn	16e
.	16E	16c#
=10	=10	=10
2.r	16F	8d
.	16G	.
.	16F	8dd
.	16D	.
.	16E	8cc
.	16C	.
.	8D	16b
.	.	16a
.	8d	16b
.	.	16dd
.	8c	16a
.	.	16dd
2.E	16B	8g#
.	16A	.
.	16B	8e
.	16d	.
.	16A	8r
.	16d	.
.	8G#	16r
.	.	16E
.	8E	16F#
.	.	16G#
.	8r	16A
.	.	16B
=11	=11	=11
4.A	16r	16c
.	16EE	16B
.	16FF#	16A
.	16GG#	16B
.	16AA	16c
.	16BB	16d
4.A	16C	16e
.	16BB	16d
.	16AA	16c
.	16BB	16d
.	16C	16e
.	16D	16fn
4.G	16E	8gn
.	16D	.
.	16C	8ggn
.	16D	.
.	16E	8g
.	16F	.
4.B	8G	16r
.	.	16a
.	8g	16g
.	.	16f
.	8G	16e
.	.	16d
=12	=12	=12
4.c	16r	16e
.	16A	16f
.	16G	16e
.	16F	16d
.	16E	[8c
.	16D	.
4.A	16E	16c]
.	16F	16B
.	16E	16c
.	16D	16d
.	[8C	16e
.	.	16f#
2.G	16C]	8.g
.	16BB	.
.	16C	.
.	16D	16f#
.	16E	16g
.	16F#	16a
.	8.G	16b
.	.	16cc
.	.	8dd
.	16F#	.
.	16G	8g
.	16A	.
=13	=13	=13
1.r	16B	16r
.	16c	16cc
.	8d	16b
.	.	16a
.	8G	16g
.	.	16f
.	16r	16e
.	16c	16a
.	16B	16g
.	16A	16f
.	16G	16e
.	16F	16d
.	16E	8c
.	16A	.
.	16G	8e
.	16F	.
.	16E	8g
.	16D	.
.	8C	16cc
.	.	16ee
.	8E	16gg
.	.	16cc
.	8G	16b
.	.	16ff
=14	=14	=14
2.r	16c	4eem
.	16e	.
.	16g	.
.	16c	.
.	16B	8dd
.	16f	.
.	4me	16r
.	.	16c
.	.	16d
.	.	16e
.	8d	16f
.	.	16d
2.c	16r	16e
.	16C	16g
.	16D	16f
.	16E	16g
.	16F	16a
.	16D	16f
.	16E	8g
.	16G	.
.	16F#	8dd
.	16G	.
.	16A	8d
.	16F#	.
=15	=15	=15
4.B	8G	16r
.	.	(16dd
.	8d	16cc
.	.	16b
.	8D	16a
.	.	16b
4.A	16r	16cc
.	(16d	16dd
.	16c	[4ee
.	16B	.
.	16A	.
.	16B	.
4.G	16c	16ee])
.	16d	16ff
.	[4e	16gg
.	.	16dd
.	.	16ee
.	.	16b
4A	16e])	16cc
.	16f	16dd
.	16g	16ee
.	16d	16ff
8G	16e	16gg
.	16B	16ee
=16	=16	=16
4F	16c	8aa
.	16d	.
.	16e	8r
.	16f	.
8E	16g	8r
.	16e	.
4.D	8a	16r
.	.	16e
.	8r	16f
.	.	16a
.	8r	16cc
.	.	16b
[2.C	16r	16cc
.	16E	16ee
.	16F	16dd
.	16A	16ff
.	16c	16ee
.	16B	16dd
.	16c	16ee
.	16e	16gg
.	16d	16ff
.	16f	16aa
.	16e	16gg
.	16d	16ff
=17	=17	=17
1.C_	16e	16gg
.	16g	16ee
.	16f	16dd
.	16a	16ff
.	16g	16ee
.	16f	16dd
.	16g	16ee
.	16e	16cc
.	16d	16b
.	16f	16dd
.	16e	16cc
.	16d	16b
.	16e	16cc
.	16c	16a
.	16B	16g
.	16d	16f
.	16c	16e
.	16B	16d
.	16c	16e
.	16A	16f
.	16G	16e
.	16F	16d
.	16E	16c
.	16D	16B
=18	=18	=18
1.C]	16E	8c
.	16F	.
.	16E	[4cc
.	16D	.
.	16C	.
.	16BB	.
.	8C	16cc]
.	.	16g
.	[4c	16e
.	.	16c
.	.	16G
.	.	16E
.	16c]	8C
.	16G	.
.	16E	8r
.	16C	.
.	16GG	8r
.	16EE	.
.	8CC	4r
.	8r	.
.	8r	8r
==	==	==
*-	*-	*-
!!!CDT: 1685/3//-1750/7/28
!!!OCY: Deutschland
!!!ODT: ?1736
!!!AFR: chorale variations
!!!AST: polyphony
!!!AMT: compound quadruple
!!!SCA: Bach-Werke-Verzeichnis
!!!AIN: organ
!!!YEP: David Huron and Denis Collins
!!!YEN: Canada
!!!EEV: 1.0
!!!RDT: 1995 April 29
!!!YED: 1995 August 31
